**kern	**kern	**dynam
*part1	*part1	*part1
*staff2	*staff1	*
*I"Piano	*	*
*clefF4	*clefG2	*
*k[b-e-a-]	*k[b-e-a-]	*
=1	=1	=1
4DD 4D	4f#X 4an 4dd	<
2FF#X 2F#X	2d 2a 2dd	.
=	=	=
4GG 4G	4d 4b- 4dd	.
2GG 2G	2d 2b- 2dd	.
=	=	=
4CC 4C	4e- 4g 4ee-	.
4FF 4F	4d 4f 4dd	.
4AAn 4An	4e- 4f 4cc	[ ff
=	=	=
4BB- 4B-	4d 4f 4b-	.
2DD 2D	2a- 2b- 2ff	.
=	=	=
*^	*	*
4r	[2.EE- [2.E-	4g 4ee-	p
*clefG2	*	*	*
4.b-	.	4dd-X 4ee-	.
.	.	4dd- 4ee-	.
8g	.	.	.
=	=	=	=
4.b-	4EE-] 4E-]	4cc 4ee-	.
.	4re	4cc 4ee-	.
8a-	.	.	.
4g	4re	4b- 4ee-	.
*clefF4	*	*	*
=	=	=	=
4r	[2.EE- [2.E-	4g 4ee-	p
*clefG2	*	*	*
4.b-	.	4dd-X 4ee-	.
.	.	4dd- 4ee-	.
8g	.	.	.
*v	*v	*	*
=	=	=
*-	*-	*-
!!!system-decoration: {(s1,s2)}
